X: 14
M:C|
L:1/8
K:Bb
(ud>c)|B4-B>dc>B|c4-c>ed>c|\
|:uA>B|c>=Bc>A F>Ac>_e|d>^cd>B G>Bd>g|\
((3efg) (cd) g>ba>g|f>a"4"c'>a f>cA>B|
c>=Bc>A F>Ac>_e|d>^cd>B G>Bd>g|\
e>bg>e c>BG>E|(3FAB (3cde f2:|


